assets/images/icons/english-icon.svg

<svg height="512pt" viewBox="0 -41 512 512" width="512pt" xmlns="http://www.w3.org/2000/svg"><path d="m407 0h-302c-57.898438 0-105 47.101562-105 105v168.945312c0 57.898438 47.101562 105 105 105h15.582031l36.519531 46.332032c2.847657 3.609375 7.1875 5.714844 11.78125 5.714844s8.9375-2.105469 11.78125-5.714844l36.519532-46.332032h189.816406c57.898438 0 105-47.101562 105-105v-168.945312c0-57.898438-47.101562-105-105-105zm0 0" fill="#6787f5"/><path d="m407 0h-151v378.945312h151c57.898438 0 105-47.101562 105-105v-168.945312c0-57.898438-47.101562-105-105-105zm0 0" fill="#38478a"/><path d="m199.757812 401.054688 17.425782-22.109376zm0 0" fill="#fff"/><path d="m512 123.253906h-126.121094l93.882813-93.882812c-18.886719-18.175782-44.539063-29.371094-72.761719-29.371094h-25.144531l-59.613281 59.613281v-59.613281h-132.480469v59.613281l-59.613281-59.613281h-25.148438c-28.222656 0-53.875 11.195312-72.761719 29.371094l93.882813 93.882812h-126.121094v132.480469h126.121094l-90.359375 90.355469-3.503907 3.503906c18.886719 18.167969 44.53125 29.351562 72.742188 29.351562h15.582031l4.234375 5.371094 63.335938-63.339844-1.027344 57.96875h135.113281v-59.40625l59.210938 59.40625h25.550781c28.089844 0 53.636719-11.085937 72.496094-29.113281l-3.53125-3.546875-90.25-90.550781h126.285156zm0 0" fill="#fff"/><path d="m512 123.253906h-126.121094l93.882813-93.882812c-18.886719-18.175782-44.539063-29.371094-72.761719-29.371094h-25.144531l-59.613281 59.613281v-59.613281h-66.242188v378.945312h66.238281v-59.40625l59.210938 59.40625h25.550781c28.089844 0 53.636719-11.085937 72.496094-29.113281l-3.53125-3.546875-90.25-90.550781h126.285156zm0 0" fill="#c7d3ed"/><path d="m292.238281 153.253906v-153.253906h-72.476562v153.253906h-219.761719v72.480469h219.761719l-2.578125 153.210937h75.054687v-153.210937h219.761719v-72.480469zm0 0" fill="#ff337a"/><path d="m292.238281 153.253906v-153.253906h-36.238281v378.945312h36.238281v-153.210937h219.761719v-72.480469zm0 0" fill="#d1005b"/><path d="m199.757812 133.25v-21.210938l-110.8125-110.8125c-11.363281 1.75-22.132812 5.332032-31.996093 10.429688l121.597656 121.59375zm0 0" fill="#ff337a"/><path d="m455.050781 11.65625c-9.863281-5.097656-20.632812-8.679688-31.996093-10.429688l-110.8125 110.8125v21.210938h21.210937zm0 0" fill="#d1005b"/><path d="m56.976562 367.304688c9.867188 5.09375 20.636719 8.671874 32.003907 10.421874l110.777343-110.78125v-21.210937h-21.210937zm0 0" fill="#ff337a"/><path d="m312.242188 245.734375v21.273437l110.398437 110.773438c11.386719-1.710938 22.183594-5.25 32.074219-10.316406l-121.320313-121.730469zm0 0" fill="#d1005b"/></svg>

<svg width="512" height="379" viewBox="0 0 512 379" fill="none" xmlns="http://www.w3.org/2000/svg">
<path d="M407 0H105C47.1016 0 0 47.1016 0 105V273.945C0 331.844 47.1016 378.945 105 378.945H120.582H157.102C165 378.945 164.289 378.945 168.883 378.945C173.477 378.945 172 378.945 180.664 378.945H217.184H407C464.898 378.945 512 331.844 512 273.945V105C512 47.1016 464.898 0 407 0Z" fill="#6787F5"/>
<path d="M407 0H256V378.945H407C464.898 378.945 512 331.844 512 273.945V105C512 47.1016 464.898 0 407 0Z" fill="#38478A"/>
<path d="M512 123.254H385.879L479.762 29.3711C460.875 11.1953 435.223 0 407 0H381.855L322.242 59.6133V0H189.762V59.6133L130.148 0H105C76.7773 0 51.125 11.1953 32.2383 29.3711L126.121 123.254H0V255.734H126.121L35.7617 346.09L32.2578 349.594C51.1445 367.762 76.7891 378.945 105 378.945H120.582H130.188L188.152 320.977L187.125 378.945H322.238V319.539L381.449 378.945H407C435.09 378.945 460.637 367.859 479.496 349.832L475.965 346.285L385.715 255.734H512V123.254Z" fill="white"/>
<path d="M512 123.254H385.879L479.762 29.3711C460.875 11.1953 435.223 0 407 0H381.855L322.242 59.6133V0H256V378.945H322.238V319.539L381.449 378.945H407C435.09 378.945 460.637 367.859 479.496 349.832L475.965 346.285L385.715 255.734H512V123.254Z" fill="#C7D3ED"/>
<path d="M292.238 153.254V0H219.762V153.254H0V225.734H219.762L217.184 378.945H292.238V225.734H512V153.254H292.238Z" fill="#FF337A"/>
<path d="M292.238 153.254V0H256V378.945H292.238V225.734H512V153.254H292.238Z" fill="#D1005B"/>
<path d="M199.758 133.25V112.039L88.9453 1.22656C77.582 2.97656 66.8125 6.55859 56.9492 11.6562L178.547 133.25H199.758Z" fill="#FF337A"/>
<path d="M455.051 11.6562C445.188 6.55859 434.418 2.97656 423.055 1.22656L312.242 112.039V133.25H333.453L455.051 11.6562Z" fill="#D1005B"/>
<path d="M56.9766 367.305C66.8438 372.398 77.6133 375.977 88.9805 377.727L199.758 266.945V245.734H178.547L56.9766 367.305Z" fill="#FF337A"/>
<path d="M312.242 245.734V267.008L422.641 377.781C434.027 376.07 444.824 372.531 454.715 367.465L333.395 245.734H312.242Z" fill="#D1005B"/>
</svg>
